dist/assets/icons/residential.svg

<svg width="24" height="22" viewBox="0 0 24 22" fill="none" xmlns="http://www.w3.org/2000/svg">
<path fill-rule="evenodd" clip-rule="evenodd" d="M23.9933 9.25L11.9933 0.25L-0.00665283 9.25L0.564776 10.9643H1.51716V21.9167H22.4695V10.9643H23.4219L23.9933 9.25ZM3.42192 20.0119V9.05952L11.9933 2.63095L20.5648 9.05952V20.0119H15.803V14.4034L14.8506 13.451H9.13631L8.18392 14.4034V20.0119H3.42192ZM10.0887 20.0119H13.8982V15.3558H10.0887V20.0119Z" fill="#FF5C00"/>
</svg>

<svg width="24" height="22" fill="none" xmlns="http://www.w3.org/2000/svg"><path fill-rule="evenodd" clip-rule="evenodd" d="m23.993 9.25-12-9-12 9 .572 1.714h.952v10.953H22.47V10.964h.952l.571-1.714ZM3.422 20.012V9.06l8.571-6.43 8.572 6.43v10.952h-4.762v-5.609l-.952-.952H9.136l-.952.952v5.609H3.422Zm6.667 0h3.81v-4.656h-3.81v4.656Z" fill="#FF5C00"/></svg>
